Catalina-light/actions/16/foreign_green.svg

<svg viewBox="0 0 16 16" xmlns="http://www.w3.org/2000/svg">
<defs>
<style id="current-color-scheme" type="text/css">.ColorScheme-Text {
        color:#363636;
      }
      .ColorScheme-Highlight {
        color:#3daee9;
      }</style>
</defs>
<path class="ColorScheme-Text" d="m5 2c-0.552 0-1 0.448-1 1v2h-2v3h1v-2h10v2h1v-3h-2v-2c0-0.552-0.448-1-1-1h-6zm0 1h6v2h-6v-2zm-0.99609 6a1 1 0 0 0-1 1 1 1 0 0 0 1 1 1 1 0 0 0 1-1 1 1 0 0 0-1-1zm-1.3203 3a2 2 0 0 0-0.67969 1.5v0.5h4v-0.5a2 2 0 0 0-0.67969-1.5h-2.6406z" fill="currentColor"/>
<path d="m13.34 9-3.148 3.609-1.524-1.552-0.663 0.675 2.227 2.268 3.773-4.323z" fill="#42be7f"/>
</svg>

<svg xmlns="http://www.w3.org/2000/svg" viewBox="0 0 16 16">
  <defs id="defs3051">
    <style type="text/css" id="current-color-scheme">
      .ColorScheme-Text {
        color:#363636;
      }
      .ColorScheme-Highlight {
        color:#3daee9;
      }
      </style>
  </defs>
  <path 
        style="fill:currentColor;fill-opacity:1;stroke:none"
        d="M 5 2 C 4.448 2 4 2.448 4 3 L 4 5 L 2 5 L 2 8 L 3 8 L 3 6 L 13 6 L 13 8 L 14 8 L 14 5 L 12 5 L 12 3 C 12 2.448 11.552 2 11 2 L 5 2 z M 5 3 L 11 3 L 11 5 L 5 5 L 5 3 z M 4.0039062 9 A 1 1 0 0 0 3.0039062 10 A 1 1 0 0 0 4.0039062 11 A 1 1 0 0 0 5.0039062 10 A 1 1 0 0 0 4.0039062 9 z M 2.6835938 12 A 2 2 0 0 0 2.0039062 13.5 L 2.0039062 14 L 6.0039062 14 L 6.0039062 13.5 A 2 2 0 0 0 5.3242188 12 L 2.6835938 12 z "
        class="ColorScheme-Text"
        />
  <path
     style="fill:#42be7f"
     d="M 13.34,9 10.192,12.609 8.668,11.057 8.005,11.732 10.232,14 14.005,9.677 Z"
      />
</svg>
